build/Karasa-Jaga/scalable/apps/soundcloud-symbolic.svg

<svg height="16" width="16" xmlns="http://www.w3.org/2000/svg"><path d="m14.469 6.875c-1.473 0-2.766.7898-3.469 1.9688v7.1562h7.625.281v-.031c1.174-.143 2.094-1.132 2.094-2.344 0-1.31-1.065-2.375-2.375-2.375-.044 0-.081.029-.125.031.01-.115.031-.226.031-.343 0-2.2309-1.832-4.063-4.062-4.063zm-5.469 2.0312v7.0938h1v-6.9688c-.2863-.0854-.5927-.125-.9062-.125-.0313 0-.0628-.0008-.0938 0zm-1 .1876c-.3794.1349-.7041.3345-1 .5937v6.3125h1zm-2.625 2.1562c-.1316 0-.2492.042-.375.062v4.657c.1024.016.2063.028.3125.031.0213.001.041 0 .0625 0h.625v-4.625c-.2054-.058-.401-.125-.625-.125zm-1.375.438c-.6009.431-1 1.142-1 1.937 0 .789.4055 1.474 1 1.906z" fill="#bebebe" transform="matrix(.85141193 0 0 .85141193 -2.216943 -1.738188)"/></svg>

<?xml version="1.0" encoding="UTF-8" standalone="no"?>
<!-- Created with Inkscape (http://www.inkscape.org/) -->

<svg
   xmlns:dc="http://purl.org/dc/elements/1.1/"
   xmlns:cc="http://creativecommons.org/ns#"
   xmlns:rdf="http://www.w3.org/1999/02/22-rdf-syntax-ns#"
   xmlns:svg="http://www.w3.org/2000/svg"
   xmlns="http://www.w3.org/2000/svg"
   xmlns:xlink="http://www.w3.org/1999/xlink"
   xmlns:sodipodi="http://sodipodi.sourceforge.net/DTD/sodipodi-0.dtd"
   xmlns:inkscape="http://www.inkscape.org/namespaces/inkscape"
   id="svg7384"
   height="16"
   width="16"
   version="1.1"
   inkscape:version="0.92.2 (unknown)"
   sodipodi:docname="soundcloud-symbolic.svg">
  <defs
     id="defs7527">
    <inkscape:perspective
       id="perspective18"
       inkscape:persp3d-origin="8 : 5.3333333 : 1"
       inkscape:vp_z="16 : 8 : 1"
       inkscape:vp_y="0 : 1000 : 0"
       inkscape:vp_x="0 : 8 : 1"
       sodipodi:type="inkscape:persp3d" />
    <linearGradient
       gradientUnits="userSpaceOnUse"
       y2="13.168831"
       x2="5.8043289"
       y1="4.7809148"
       x1="5.8043289"
       gradientTransform="scale(1.1952286,0.83666)"
       id="StandardGradient">
      <stop
         id="stop3389"
         offset="0"
         style="stop-color:#000000;stop-opacity:0.86274511;" />
      <stop
         id="stop3391"
         offset="1"
         style="stop-color:#000000;stop-opacity:0.47058824;" />
    </linearGradient>
    <inkscape:perspective
       sodipodi:type="inkscape:persp3d"
       inkscape:vp_x="0 : 0.5 : 1"
       inkscape:vp_y="0 : 1000 : 0"
       inkscape:vp_z="1 : 0.5 : 1"
       inkscape:persp3d-origin="0.5 : 0.33333333 : 1"
       id="perspective3648" />
    <linearGradient
       y2="13.168831"
       x2="5.8043289"
       y1="4.7809148"
       x1="5.8043289"
       gradientTransform="matrix(-1.1952286,0,0,0.83666,-25,0)"
       gradientUnits="userSpaceOnUse"
       id="linearGradient3627"
       xlink:href="#StandardGradient"
       inkscape:collect="always" />
    <clipPath
       id="clipPath3634"
       clipPathUnits="userSpaceOnUse">
      <path
         id="path3636"
         d="m -20,0 0,16 16,0 0,-16 -16,0 z m 2,4 5,3.34375 L -13,4 -8,7.34375 -8,4 -6,4 -6,12 -8,12 -8,8.65625 -13,12 -13,8.65625 -18,12 -18,4 z"
         style="fill:#ff00ff;fill-opacity:1;stroke:none;display:inline" />
    </clipPath>
    <linearGradient
       y2="13.168831"
       x2="5.8043289"
       y1="4.7809148"
       x1="5.8043289"
       gradientTransform="matrix(-1.1952286,0,0,0.83666,-5,0)"
       gradientUnits="userSpaceOnUse"
       id="linearGradient5025"
       xlink:href="#StandardGradient"
       inkscape:collect="always" />
    <clipPath
       id="clipPath40"
       clipPathUnits="userSpaceOnUse">
      <path
         id="path42"
         d="M 0,500 1024,500 1024,0 0,0 0,500 Z"
         inkscape:connector-curvature="0" />
    </clipPath>
    <clipPath
       id="clipPath18"
       clipPathUnits="userSpaceOnUse">
      <path
         id="path20"
         d="M 0,2743.88 0,0 l 2743.81,0 0,2743.88 -2743.81,0 z"
         inkscape:connector-curvature="0" />
    </clipPath>
  </defs>
  <sodipodi:namedview
     pagecolor="#ffffff"
     bordercolor="#666666"
     borderopacity="1"
     objecttolerance="10"
     gridtolerance="10"
     guidetolerance="10"
     inkscape:pageopacity="0"
     inkscape:pageshadow="2"
     inkscape:window-width="1366"
     inkscape:window-height="716"
     id="namedview7525"
     showgrid="false"
     inkscape:zoom="14.75"
     inkscape:cx="-7.3102703"
     inkscape:cy="6.4125977"
     inkscape:window-x="0"
     inkscape:window-y="27"
     inkscape:window-maximized="1"
     inkscape:current-layer="svg7384" />
  <metadata
     id="metadata90">
    <rdf:RDF>
      <cc:Work
         rdf:about="">
        <dc:format>image/svg+xml</dc:format>
        <dc:type
           rdf:resource="http://purl.org/dc/dcmitype/StillImage" />
        <dc:title>Gnome Symbolic Icon Theme</dc:title>
      </cc:Work>
    </rdf:RDF>
  </metadata>
  <title
     id="title9167">Gnome Symbolic Icon Theme</title>
  <g
     transform="matrix(0.85141193,0,0,0.85141193,-2.2169431,-877.29616)"
     id="layer1"
     style="fill:#bebebe;fill-opacity:1">
    <g
       transform="translate(-67.913,-42.84)"
       id="g4036"
       style="fill:#bebebe;fill-opacity:1">
      <path
         transform="translate(67.913,1071.2)"
         d="M 14.469,6.875 C 12.996,6.875 11.703,7.6648 11,8.8438 V 16 h 7.625 0.281 V 15.969 C 20.08,15.826 21,14.837 21,13.625 c 0,-1.31 -1.065,-2.375 -2.375,-2.375 -0.044,0 -0.081,0.029 -0.125,0.031 0.01,-0.115 0.031,-0.226 0.031,-0.343 0,-2.2309 -1.832,-4.063 -4.062,-4.063 z M 9,8.9062 V 16 h 1 V 9.0312 C 9.7137,8.9458 9.4073,8.9062 9.0938,8.9062 9.0625,8.9062 9.031,8.9054 9,8.9062 Z M 8,9.0938 C 7.6206,9.2287 7.2959,9.4283 7,9.6875 V 16 H 8 Z M 5.375,11.25 C 5.2434,11.25 5.1258,11.292 5,11.312 v 4.657 c 0.1024,0.016 0.2063,0.028 0.3125,0.031 0.0213,0.001 0.041,0 0.0625,0 H 6 V 11.375 C 5.7946,11.317 5.599,11.25 5.375,11.25 Z M 4,11.688 c -0.6009,0.431 -1,1.142 -1,1.937 0,0.789 0.4055,1.474 1,1.906 z"
         style="color:#000000;fill:#bebebe;fill-opacity:1"
         id="path3058"
         inkscape:connector-curvature="0" />
    </g>
  </g>
</svg>
